**kern
*clefC3
*k[]
*M3/4
=1-
4B
8c
16d
(16e
8.d)
16c
=2
8d
(2e
16d-)
16r
=3
2r
16e
(16e
16e)
16d
=4
16e
16r
16d
4e
8d
16d
8c
=5
4c
2B
=6
4B
2B
=7
2A
16G
16G
8F
=8
8.F
2E-
16F-
=9
16E#
(16F
2E#)
16r
16D#
=10
4D#
16E
16F-
4F-
=11
*_